!!!COM: Corelli, Arcangelo
!!!OTL: 
!!!ONM: Opus 3, No. 12
!!!OMV: 6
!!!CDT: 1653/2/17/-1713/1/8/
!!!OCY: Italia
**kern	**kern	**kern	**kern
*clefC	*clefC	*clefG	*clefG
*k[f#c#]	*k[f#c#]	*k[f#c#]	*k[f#c#]
*D:	*D:	*D:	*D:
*M4/4	*M4/4	*M4/4	*M4/4
=1	=1	=1	=1
4AA	4AA	1r	16r
.	.	.	16a
.	.	.	16cc#
.	.	.	16a
4BB	4BB	.	16dd
.	.	.	16b
.	.	.	16dd
.	.	.	16b
4C#	4C#	.	8ee
.	.	.	8cc#
4D	4D	.	4ff#
=2	=2	=2	=2
8C#	8C#	1r	8ee
8F#	8F#	.	16dd
.	.	.	16cc#
8BB	8BB	.	8dd
8E	8E	.	16cc#
.	.	.	16b
8AA	8AA	.	8cc#
8A	8A	.	8ff#
4G#	4G#	.	8b
.	.	.	8ee
=3	=3	=3	=3
8F#	8F#	2r	8a
8D	8D	.	16dd
.	.	.	16cc#
8E	8E	.	4b
8EE	8EE	.	.
8AA	8AA	16r	8a
.	.	16e	.
8E	8E	16g#	8g#
.	.	16e	.
4F#	4F#	16a	8f#
.	.	16f#	.
.	.	16a	8d#
.	.	16f#	.
=4	=4	=4	=4
4G#	4G#	8b	8e
.	.	8g#	8b
4A	4A	4cc#	8a
.	.	.	8ff#
8G#	8G#	8b	8r
8c#	8c#	16a	8ee
.	.	16g#	.
8F#	8F#	8a	8r
8B	8B	16g#	8dd#
.	.	16f#	.
=5	=5	=5	=5
4E	4E	8g#	16r
.	.	.	16ee
.	.	8cc#	16gg#
.	.	.	16ee
4D#	4D#	8f#	16bb
.	.	.	16b
.	.	8b	16dd#
.	.	.	16b
8C#	8C#	8e	16cc#
.	.	.	16dd#
8AA	8AA	16a	16ee
.	.	16g#	16e
4BB	4BB	4f#	8.e
.	.	.	16d#
=6	=6	=6	=6
4E	4E	4e	16e
.	.	.	16ee
.	.	.	16gg#
.	.	.	16ee
4C#	4C#	16r	4aa
.	.	16ee	.
.	.	16aa	.
.	.	16ee	.
4.D	4.D	4.ff#	8r
.	.	.	8ff#
.	.	.	4bb
8D	8D	8ff#	.
=7	=7	=7	=7
4.E	4.E	4gg#	16r
.	.	.	16gg#
.	.	.	16bb
.	.	.	16gg#
.	.	16r	4ccc#
.	.	16gg#	.
8E	8E	16ccc#	.
.	.	16gg#	.
4.F#	4.F#	4.aa	8r
.	.	.	8aa
.	.	.	4ddd
8F#	8F#	8aa	.
=8	=8	=8	=8
4.G#	4.G#	4bb	16r
.	.	.	16bb
.	.	.	16ddd
.	.	.	16bb
.	.	16r	4eee
.	.	16bb	.
8G#	8G#	16eee	.
.	.	16bb	.
8A	16A	8ccc#	8r
.	16AA	.	.
8AA	16C#	8cc#	8ee
.	16AA	.	.
8D	16D	[4b	8ff#
.	16BB	.	.
8BB	16D	.	8f#
.	16BB	.	.
=9	=9	=9	=9
8E	8E	8b]	8g#
8C#	8C#	8e	4ee
4F#	4F#	4a	.
.	.	.	8dd#
8E	8E	8g#	4ee
16D	16D	8cc#	.
16C#	16C#	.	.
8D	8D	8f#	4r
16C#	16C#	8b	.
16BB	16BB	.	.
=10	=10	=10	=10
8C#	8C#	8e	16r
.	.	.	16a
8F#	8F#	4a	16cc#
.	.	.	16a
8BB	8BB	.	16dd
.	.	.	16b
8E	8E	8g#	16dd
.	.	.	16b
8AA	8AA	8a	4cc#
4A	4A	8cc#	.
.	.	8b	4r
8G#	8G#	8ee	.
=11	=11	=11	=11
8A	8A	8cc#	16r
.	.	.	16ee
8G#	8G#	4ee	16gg#
.	.	.	16ee
8F#	8F#	.	16aa
.	.	.	16ff#
8B	8B	8dd#	16aa
.	.	.	16ff#
8E	8E	8ee	16gg#
.	.	.	16b
8G#	8G#	4bb	16ee
.	.	.	16b
8A	8A	.	16cc#
.	.	.	16ee
8AA	8AA	[8aa	16a
.	.	.	16ff#
=12	=12	=12	=12
8BB	8BB	8aa]	16dd#
.	.	.	16b
8C#	8C#	8gg#	8ee
8AA	8AA	4ff#	8.ee
8BB	8BB	.	.
.	.	.	16dd#
4E	4E	4ee	16ee
.	.	.	16e
.	.	.	16g#
.	.	.	16e
4F#	4F#	4r	16a
.	.	.	16f#
.	.	.	16a
.	.	.	16f#
=13	=13	=13	=13
4G#	4G#	2r	8b
.	.	.	8g#
4A	4A	.	4cc#
4G#	4G#	16r	8b
.	.	16ee	.
.	.	16gg#	4ee
.	.	16ee	.
4F#	4F#	16aa	.
.	.	16ff#	.
.	.	16aa	8dd#
.	.	16ff#	.
=14	=14	=14	=14
4E	4E	8bb	16r
.	.	.	16ee
.	.	8gg#	16gg#
.	.	.	16ee
4r	4r	4ccc#	16aa
.	.	.	16ff#
.	.	.	16aa
.	.	.	16ff#
4E	4E	4bb	8bb
.	.	.	8gg#
4r	4r	[4aa	4ccc#
=15	=15	=15	=15
4E	16r	8aa]	4bb
.	16E	.	.
.	16G#	4gg#	.
.	16E	.	.
4F#	16A	.	4aa
.	16F#	.	.
.	16A	4ff#	.
.	16F#	.	.
8G#	16B	.	4gg#
.	16G#	.	.
8c#	16c#	4ee	.
.	16B	.	.
8A	16A	.	4ff#
.	16F#	.	.
8B	16B	8dd#	.
.	16A	.	.
=16	=16	=16	=16
8G#	8G#	4ee	16ee
.	.	.	16e
4e	4e	.	16g#
.	.	.	16e
.	.	16r	4f#
.	.	16a	.
4d	4d	16dd	.
.	.	16f#	.
.	.	4g#	16r
.	.	.	16ee
8c#	8c#	.	16aa
.	.	.	16cc#
8B	8B	16r	16dd
.	.	16dd	16b
8E	8E	16b	16g#
.	.	16g#	16ee
=17	=17	=17	=17
8AA	16AA	16a	16cc#
.	16A	16cc#	16a
8A	16c#	16a	4ee
.	16A	16cc#	.
8d	16d	4ff#	.
.	16D	.	.
8D	16F#	.	4dd
.	16D	.	.
8A	16A	4ee	.
.	16AA	.	.
8AA	16C#	.	4cc#
.	16AA	.	.
8BB	16BB	4dd	.
.	16B	.	.
8E	16G#	.	[8b
.	16E	.	.
=18	=18	=18	=18
8A	16A	4cc#	8b]
.	16B	.	.
8AA	16c#	.	4a
.	16A	.	.
8BB	16B	8dd	.
.	16c#	.	.
8B	16d	4b	16g#
.	16B	.	16f#
8c#	8c#	.	8e#
8F#	8F#	8a	4cc#
8B	8B	8dd	.
8BB	8BB	16g#	[8b
.	.	16f#	.
=19	=19	=19	=19
8C#	8C#	8e#	8b]
8D	8D	4f#	8a
8BB	8BB	.	4g#
8C#	8C#	8e#	.
4FF#	4FF#	4f#	16a
.	.	.	16f#
.	.	.	16a
.	.	.	16cc#
4r	16r	16r	4ff#
.	16F#	16ff#	.
.	16D#	16bb	.
.	16F#	16ff#	.
=20	=20	=20	=20
4BB	4BB	4dd#	16r
.	.	.	16ff#
.	.	.	16dd#
.	.	.	16ff#
4r	16r	16r	4b
.	16B	16dd#	.
.	16G#	16b	.
.	16B	16dd#	.
4E	4E	4g#	16r
.	.	.	16bb
.	.	.	16gg#
.	.	.	16bb
4r	16r	16r	4ee
.	16E	16gg#	.
.	16C#	16ee	.
.	16E	16gg#	.
=21	=21	=21	=21
4AA	4AA	4cc#	16r
.	.	.	16ee
.	.	.	16cc#
.	.	.	16ee
4r	16r	16r	4a
.	16A	16cc#	.
.	16F#	16a	.
.	16A	16cc#	.
4D	4D	4f#	16r
.	.	.	16aa
.	.	.	16gg
.	.	.	16aa
4r	4r	16r	16ff#
.	.	16aa	16ff#
.	.	16gg	16ee
.	.	16aa	16ff#
=22	=22	=22	=22
4D	4D	16ff#	16dd
.	.	16aa	16ff#
.	.	16gg	16ee
.	.	16aa	16ff#
4r	4r	16ff#	16dd
.	.	16gg	16ee
.	.	16ee	16cc#
.	.	16ff#	16dd
4D	4D	16dd	16b
.	.	16ff#	16dd
.	.	16ee	16cc#
.	.	16ff#	16dd
4r	4r	16dd	16b
.	.	16ee	16cc#
.	.	16cc#	16a
.	.	16dd	16b
=23	=23	=23	=23
4E	4E	16b	8g#
.	.	16ee	.
.	.	16gg#	8e
.	.	16ee	.
4r	4r	16aa	4r
.	.	16ff#	.
.	.	16aa	.
.	.	16ff#	.
4E	4E	8bb	16r
.	.	.	16ee
.	.	8gg#	16gg#
.	.	.	16ee
4r	4r	4ccc#	16aa
.	.	.	16ff#
.	.	.	16aa
.	.	.	16ff#
=24	=24	=24	=24
8r	16r	4bb	8bb
.	16E	.	.
8E	16G#	.	8gg#
.	16E	.	.
8A	16A	4aa	4ccc#
.	16F#	.	.
8F#	16A	.	.
.	16F#	.	.
8B	8B	16gg#	4bb
.	.	16b	.
8G#	8G#	16cc#	.
.	.	16dd#	.
4c#	4c#	16ee	[4aa
.	.	16ff#	.
.	.	16ee	.
.	.	16ff#	.
=25	=25	=25	=25
4B	4B	16dd#	8aa]
.	.	16ee	.
.	.	16dd#	4gg#
.	.	16ee	.
4A	4A	16cc#	.
.	.	16dd#	.
.	.	16cc#	4ff#
.	.	16dd#	.
8G#	8G#	16b	.
.	.	16cc#	.
8c#	8c#	16b	4ee
.	.	16cc#	.
8F#	8F#	16a	.
.	.	16b	.
8B	8B	16a	8dd#
.	.	16b	.
=26	=26	=26	=26
1E	1E	4g#	8ee
.	.	.	8b
.	.	4.r	16cc#
.	.	.	16dd#
.	.	.	16cc#
.	.	.	16dd#
.	.	.	8b
.	.	8b	8e
.	.	16cc#	[4a
.	.	16dd#	.
.	.	16cc#	.
.	.	16dd#	.
=27	=27	=27	=27
4E	8r	8b	8a]
.	8E	8e	8g#
4F#	16F#	4.a	8c#
.	16G#	.	.
.	16F#	.	8f#
.	16G#	.	.
8D#	8D#	.	8B
8E	8E	8g#	4e
8AA	8AA	8f#	.
8BB	8BB	8b	8d#
=28	=28	=28	=28
4EE	4EE	16g#	4e
.	.	16e	.
.	.	16g#	.
.	.	16b	.
4GG#	4GG#	8ee	16r
.	.	.	16b
.	.	8G#	16ee
.	.	.	16b
4AA	4AA	16r	8cc#
.	.	16a	.
.	.	16cc#	8A
.	.	16ee	.
4C#	4C#	8aa	16r
.	.	.	16ee
.	.	8c#	16aa
.	.	.	16ee
=29	=29	=29	=29
2D	2D	16r	8ff#
.	.	16ff#	.
.	.	16aa	8d
.	.	16ff#	.
.	.	8dd	16r
.	.	.	16ff#
.	.	8d	16bb
.	.	.	16ff#
2E	2E	16r	8gg#
.	.	16gg#	.
.	.	16bb	8e
.	.	16gg#	.
.	.	8ee	16r
.	.	.	16gg#
.	.	8e	16ccc#
.	.	.	16gg#
=30	=30	=30	=30
2F#	2F#	16r	8aa
.	.	16aa	.
.	.	16ccc#	8f#
.	.	16aa	.
.	.	8ff#	16r
.	.	.	16cc#
.	.	8f#	16ff#
.	.	.	16cc#
2BB	2BB	16r	8dd#
.	.	16dd#	.
.	.	16ff#	8B
.	.	16dd#	.
.	.	8b	16r
.	.	.	16ff#
.	.	8B	16bb
.	.	.	16ff#
=31	=31	=31	=31
2E	16r	16r	8gg#
.	16G#	16b	.
.	16B	16g#	8e
.	16G#	16e	.
.	4E	16g#	16r
.	.	16b	16ee
.	.	16ee	16gg#
.	.	16b	16ee
2C#	16r	8cc#	8aa
.	16c#	.	.
.	16e	8c#	8a
.	16c#	.	.
.	4A	16r	16r
.	.	16ee	16aa
.	.	16aa	16ccc#
.	.	16ee	16aa
=32	=32	=32	=32
8r	16r	4ff#	4ddd
.	16D	.	.
8D	16F#	.	.
.	16D	.	.
8A	16A	4ee	4ccc#
.	16c#	.	.
8c#	16A	.	.
.	16c#	.	.
4F#	4F#	16r	16r
.	.	16dd	16ff#
.	.	16ff#	16aa
.	.	16dd	16ff#
4G#	4G#	16b	16dd
.	.	16g#	16b
.	.	16e	16ee
.	.	16g#	16b
=33	=33	=33	=33
8r	16r	4a	4cc#
.	16A	.	.
8A	16c#	.	.
.	16A	.	.
8e	16e	4g#	4b
.	16E	.	.
8E	16G#	.	.
.	16E	.	.
4F#	4F#	16r	16r
.	.	16a	16ff#
.	.	16cc#	16aa
.	.	16a	16ff#
4E	4E	16ee	4ccc#
.	.	16cc#	.
.	.	16ee	.
.	.	16cc#	.
=34	=34	=34	=34
4D	4D	4ff#	16r
.	.	.	16dd
.	.	.	16ff#
.	.	.	16dd
4C#	4C#	16r	2aa
.	.	16a	.
.	.	16cc#	.
.	.	16a	.
4BB	16BB	2dd	.
.	16B	.	.
.	16d	.	.
.	16B	.	.
4E	16e	.	4gg#
.	16E	.	.
.	16G#	.	.
.	16E	.	.
=35	=35	=35	=35
4AA	4A	4cc#	16r
.	.	.	16aa
.	.	.	16ccc#
.	.	.	16aa
4C#	4C#	16r	4eee
.	.	16ee	.
.	.	16aa	.
.	.	16ee	.
4.D	4.D	4ff#	16r
.	.	.	16aa
.	.	.	16ccc#
.	.	.	16aa
.	.	16r	[4ddd
.	.	16ff#	.
8D	8D	16bb	.
.	.	16ff#	.
=36	=36	=36	=36
4E	4E	8gg#	4ddd]
.	.	8ee	.
4D#	4D#	2aa	4cc
2E	2E	.	2bb
.	.	4gg#	.
=37	=37	=37	=37
1AA	1AA	1aa	1aa
==	==	==	==
*-	*-	*-	*-
!!!RWG: This file only contains pitch and duration data.
!!!RWG: Transposing instruments are not transposed.
!!!RWG: Durations of rests and tied notes may be interpreted.
!!!RWG: Key is interpreted using the Humdrum key tool.
!!!SCA: 
!!!YOR: Chrysander Edition
!!!AGN: chamber
!!!AFT: stage1
!!!ENC: F. Bennion
!!!END: 1997/04/15
!!!AST: baroque
!!!YEC: Copyright 1994, Center for Computer Assisted Research in the Humanities
!!!YEM: Rights to all derivative electronic formats reserved.
!!!YEM: Refer to licensing agreement for further details.
!!!YEN: United States of America
!!!EED: W.B. Hewlett
!!!KEY: 2329814831
!!!EMD: Converted from MuseData to Humdrum Aug 9, 1999, by Bret Aarden using muse2kern.
!!!VTS: 1564332768
